src/assets/images/icons/linkedin-icon-white.svg

<svg width="47" height="47" viewBox="0 0 47 47" fill="none" xmlns="http://www.w3.org/2000/svg">
<path d="M43.375 0.3125H3.61465C1.79277 0.3125 0.3125 1.81348 0.3125 3.65605V43.3439C0.3125 45.1865 1.79277 46.6875 3.61465 46.6875H43.375C45.1969 46.6875 46.6875 45.1865 46.6875 43.3439V3.65605C46.6875 1.81348 45.1969 0.3125 43.375 0.3125ZM14.3285 40.0625H7.45508V17.9309H14.3389V40.0625H14.3285ZM10.8918 14.9082C8.68691 14.9082 6.90645 13.1174 6.90645 10.9229C6.90645 8.72832 8.68691 6.9375 10.8918 6.9375C13.0863 6.9375 14.8771 8.72832 14.8771 10.9229C14.8771 13.1277 13.0967 14.9082 10.8918 14.9082ZM40.0936 40.0625H33.2201V29.2969C33.2201 26.7297 33.1684 23.4275 29.6488 23.4275C26.0672 23.4275 25.5186 26.2225 25.5186 29.1105V40.0625H18.6451V17.9309H25.2391V20.9535H25.3322C26.2535 19.2145 28.4998 17.3822 31.8434 17.3822C38.7996 17.3822 40.0936 21.968 40.0936 27.9305V40.0625Z" fill="#CCD6F6"/>
</svg>

<svg xmlns="http://www.w3.org/2000/svg" width="47" height="47" fill="none"><path fill="#CCD6F6" d="M43.375.313H3.615C1.793.313.312 1.813.312 3.655v39.688c0 1.843 1.48 3.343 3.303 3.343h39.76c1.822 0 3.313-1.5 3.313-3.343V3.656c0-1.843-1.491-3.344-3.313-3.344Zm-29.047 39.75H7.455V17.93h6.884v22.131h-.01Zm-3.436-25.155a3.987 3.987 0 0 1-3.986-3.985 3.987 3.987 0 0 1 3.986-3.986 3.994 3.994 0 0 1 3.985 3.986 3.98 3.98 0 0 1-3.985 3.985Zm29.202 25.154H33.22V29.297c0-2.567-.052-5.87-3.571-5.87-3.582 0-4.13 2.796-4.13 5.683v10.953h-6.874V17.93h6.594v3.022h.093c.921-1.738 3.168-3.57 6.511-3.57 6.957 0 8.25 4.585 8.25 10.547v12.133Z"/></svg>
